X: 20193
T: MAZOURKA
%R: mazurka
B: W. Hamilton "Universal Tune-Book" Vol. 2 Glasgow 1846 p.19 #3
S: http://s3-eu-west-1.amazonaws.com/itma.dl.printmaterial/book_pdfs/hamiltonvol2web.pdf
Z: 2016 John Chambers <jc:trillian.mit.edu>
M: 3/8
L: 1/16
K: G
% - - - - - - - - - - - - - - - - - - - - - - - - -
G2 |\
FF F2A2 | G4 B2 | AB c2e2 | d4 G2 |\
FF F2A2 | G4 B2 | ABcded | G4 :|\
|: D2 |\
G3Bdg | (g2f2)D2 | D3FAc | (e2d2)F2 |\
G2Bdg2 | E2Gce2 | D2FAd2 | G4 :|
% - - - - - - - - - - - - - - - - - - - - - - - - -

%%sep 1 1 500
%%sep 1 1 500

